X: 140
T:Stan Chapman's
R:jig
C:Jerry Holland
Z: 1997 by John Chambers <jc@eddie.mit.edu> http://eddie.mit.edu/~jc/music/abc/
M:6/8
L:1/8
Q:3/8=120
K:A
|: F \
| E3 EFA | B3 Bce | fea fec | ecA BAF
| E3 EFA | B3 Bce | fea fec | ecA A2 :|
f| e2e ecA | f2f fga | fec BAB | cAF F2f
|[1 e2e ecA | f2f fga | fec BAB | cAA A2 :|
|[2 ecA ecA | fdf fga | fec BAB | cAA A2 |]
